packages/kaspersky-hexa-ui-icons/src/iconsSVGs/48/Alarm.svg

<svg width="48" height="48" viewBox="0 0 48 48" fill="none" xmlns="http://www.w3.org/2000/svg">
<path fill-rule="evenodd" clip-rule="evenodd" d="M44.7 39.6L39.5 32.67V20C39.4921 12.6874 34.5274 6.31072 27.44 4.51C27.4745 4.34203 27.4946 4.1714 27.5 4C27.5 1.79086 25.7091 0 23.5 0C21.2909 0 19.5 1.79086 19.5 4C19.5101 4.17102 19.5302 4.3413 19.56 4.51C12.4726 6.31072 7.50792 12.6874 7.50001 20V32.67L2.30001 39.6C1.95911 40.0545 1.90428 40.6626 2.15837 41.1708C2.41246 41.679 2.93185 42 3.50001 42H15.77C16.7037 45.5023 19.8754 47.9392 23.5 47.9392C27.1246 47.9392 30.2963 45.5023 31.23 42H43.5C44.0682 42 44.5876 41.679 44.8416 41.1708C45.0957 40.6626 45.0409 40.0545 44.7 39.6ZM21.5 4C21.5 2.89543 22.3954 2 23.5 2C24.6046 2 25.5 2.89543 25.5 4C25.5 4 25.5 4.09 25.5 4.14C24.8368 4.05281 24.1689 4.00606 23.5 4C22.8311 4.0053 22.1631 4.05206 21.5 4.14C21.4952 4.09346 21.4952 4.04654 21.5 4ZM23.5 46C20.9635 45.9929 18.7055 44.3915 17.86 42H29.14C28.2945 44.3915 26.0365 45.9929 23.5 46ZM4.50001 40L9.50001 33.33V20C9.50001 12.268 15.768 6 23.5 6C31.232 6 37.5 12.268 37.5 20V33.33L42.5 40H4.50001ZM23.5 8.5V10.5C18.2556 10.5055 14.0055 14.7556 14 20H12C12.0055 13.651 17.151 8.50551 23.5 8.5Z"  fill="currentColor"/>
</svg>

<svg xmlns="http://www.w3.org/2000/svg" width="48" height="48" fill="none" viewBox="0 0 48 48"><path fill="currentColor" fill-rule="evenodd" d="m44.7 39.6-5.2-6.93V20c-.0079-7.3126-4.9726-13.6893-12.06-15.49A3 3 0 0 0 27.5 4c0-2.2091-1.7909-4-4-4s-4 1.7909-4 4a4.4 4.4 0 0 0 .06.51C12.4726 6.3107 7.508 12.6874 7.5 20v12.67L2.3 39.6A1.5 1.5 0 0 0 3.5 42h12.27c.9337 3.5023 4.1054 5.9392 7.73 5.9392S30.2963 45.5023 31.23 42H43.5a1.5 1.5 0 0 0 1.2-2.4M21.5 4c0-1.1046.8954-2 2-2s2 .8954 2 2v.14a16.5 16.5 0 0 0-2-.14 16.2 16.2 0 0 0-2 .14.7.7 0 0 1 0-.14m2 42c-2.5365-.0071-4.7945-1.6085-5.64-4h11.28c-.8455 2.3915-3.1035 3.9929-5.64 4m-19-6 5-6.67V20c0-7.732 6.268-14 14-14s14 6.268 14 14v13.33l5 6.67zm19-31.5v2c-5.2444.0055-9.4945 4.2556-9.5 9.5h-2c.0055-6.349 5.151-11.4945 11.5-11.5" clip-rule="evenodd"/></svg>
